X: 191
M: C|
L: 1/4
K: F
|:\
f2 Ff | e3 d | BG Ec | A3 A |\
(fe) (ed) | (dc) (cB) | (BA) GF | E3 A |\
(Ad) (dc) | (BA) GF | EF (F//G//A/) (G/F/) | F4 :|
c2 G (G//A//B/) | A3 e | fd ge | ^c3 a |\
(ag) ba | (gf) (ed) | ^cd (d//e//f/) (e/d/) | d3 f |\
(fe) (ed) | (dc) (cB) | (BA) (GF) | E3 A |\
(Ad) (dc) | (BA) GF | EF (F//G//A/) (G/F/) | F4 |]

